packages/astro-components-stencil/src/icons/lock-open.svg

<svg xmlns="http://www.w3.org/2000/svg" viewBox="0 0 24 24"><g xmlns="http://www.w3.org/2000/svg" id="lock-open" fill-rule="nonzero">
            <path d="M12 13c-1.1 0-2 .9-2 2s.9 2 2 2 2-.9 2-2-.9-2-2-2zm6-5h-1V6c0-2.76-2.24-5-5-5-2.28 0-4.27 1.54-4.84 3.75-.14.54.18 1.08.72 1.22a1 1 0 001.22-.72A2.996 2.996 0 0112 3c1.65 0 3 1.35 3 3v2H6c-1.1 0-2 .9-2 2v10c0 1.1.9 2 2 2h12c1.1 0 2-.9 2-2V10c0-1.1-.9-2-2-2zm0 11c0 .55-.45 1-1 1H7c-.55 0-1-.45-1-1v-8c0-.55.45-1 1-1h10c.55 0 1 .45 1 1v8z"/>
        </g></svg>

<svg width="24" height="24" viewBox="0 0 24 24" fill="none" xmlns="http://www.w3.org/2000/svg">
<path fill-rule="evenodd" clip-rule="evenodd" d="M18 8H17V6C17 3.24 14.76 1 12 1C9.72 1 7.73 2.54 7.16 4.75C7.02 5.29 7.34 5.83 7.88 5.97C8.41 6.11 8.96 5.79 9.1 5.25C9.44 3.93 10.63 3 12 3C13.65 3 15 4.35 15 6V8H6C4.9 8 4 8.9 4 10V20C4 21.1 4.9 22 6 22H18C19.1 22 20 21.1 20 20V10C20 8.9 19.1 8 18 8ZM12 13C10.9 13 10 13.9 10 15C10 16.1 10.9 17 12 17C13.1 17 14 16.1 14 15C14 13.9 13.1 13 12 13ZM17 20C17.55 20 18 19.55 18 19V11C18 10.45 17.55 10 17 10H7C6.45 10 6 10.45 6 11V19C6 19.55 6.45 20 7 20H17Z" fill="black"/>
</svg>
